X: 2436
T: HOME WALTZ
R: waltz
B: Kerr's v.2 p.50 #436
Z: 2016 John Chambers <jc:trillian.mit.edu>
M: 3/8
L: 1/16
K: G
GA |\
B2B2 ce | d2d2 Bd | c2cBcA |[1 B2G2 :|[2 G4 |: GA |\
B2BGcA | dBGBdB | c2cBcA |[1 B2G2 :|[2 G4 |]
d2 |\
g2g2 fe | d2d2B2 | c2c2A2 | B2B2d2 |\
g2g2 fe | d2d2B2 | c2c2A2 | G4 |]
d2 |\
gfagfe | d2d2 Bd | c2c2 Ac | B2B2d2 |\
gfagfe | d2d2 Bd | c2cBcA | G4 |]
